T: Miss Charlotte Alston Stewart's
M: 4/4
L: 1/8
K: Amix
e|c2 Ac B2GB|ABcd eaed|cAeA B2Gf|ecdB AAA:|
e|ceae f2df|ecac fBBd|ceae fdfa|ecdB AAAe|
ceae f2df|ecac fBBd|dfca Bcdf|ecdB AAA||
